X:1
T:Title
%%score { ( 1 3 ) | 2 }
L:1/8
M:4/4
K:Bb
V:1 treble nm="Grand Piano"
V:3 treble 
V:2 bass 
V:1
 z4 z2[Q:1/4=106] D[CE] | [DF]2 [DB]2 [Fd]2 cB | G2 [GB]4 [EG][EG] | [DF]2 [DB]2 d2 cB | %4
[M:3/4] c6 |[M:1/4] D[CE] |[M:4/4] [DF]2 [DB]2 [Fd]2 cB | G2 [GB]4 GG | F2 B2 BAGA |[M:3/4] [DB]6 | %10
[M:1/4] [DB][DFB] |[M:4/4] z [Ec]3- [Ec] z z2 | z [Fd]3- [Fd] z z2 | %13
 [=Ec]2 [Ec]2 [Ed][Ec][EB][EG] | F6[K:bass] z2[K:treble] | [DF][Fd][Fd][Fd] [Fd][Fd][Fc][FB] | %16
[M:17/16] [EG][Ge][Ge][Ge][Ge][Ge]3/2GG |[M:4/4] F2 B2 BAGA |[M:3/4] [DB]6 |[M:1/4] [DB][DFB] | %20
[M:4/4] z [Ec]3- [Ec] z z2 | z [Fd]3- [Fd] z z2 | [=Ec]2 [Ec]2 [Ed][Ec][EB][EG] | %23
 F6[K:bass] z2[K:treble] | [DF][Fd][Fd][Fd] [Fd][Fd][Fc][FB] | %25
[M:17/16] [EG][Ge][Ge][Ge][Ge][Ge]3/2GG |[M:4/4] F2 B2 BAGA |[M:3/4] [DB]6 |] %28
V:2
 z4 z2 [B,,B,][B,,B,] | [B,,B,]2 [B,,B,]2 [B,,B,]2 [E,G,E][E,G,E] | [E,B,E]2 [E,E]4 [E,B,][E,B,] | %3
 [B,,B,]2 [B,,B,]2[K:treble] [B,F]2 [A,CF][K:bass][G,C=E] |[M:3/4] [F,A,F]6 | %5
[M:1/4] [B,,B,][B,,B,] |[M:4/4] [B,,B,]2 [B,,B,]2 [B,,B,]2 [E,G,E][E,G,E] | %7
 [E,B,E]2 [E,E]4 [E,B,E][E,B,E] | [F,B,D]2 [F,DF]2 [F,CE][F,CE][F,CE][F,CE] |[M:3/4] [B,,B,]6 | %10
[M:1/4] [B,,B,]B,, |[M:4/4] F,[F,A,]F,F, F,F,[F,A,E][F,A,E] | %12
 [B,,B,][B,,B,]B,,B,, B,,B,,[B,,B,][B,,B,] | [C,G,]2 [C,G,]2 [C,G,][C,G,][C,G,][C,B,] | %14
 [F,A,]2 F,F, F,E,[D,B,][C,A,C] | [B,,B,][B,,B,][B,,B,][B,,B,] [B,,B,][B,,B,][C,A,][D,B,] | %16
[M:17/16] [E,B,][E,B,][E,B,][E,B,][E,B,][E,B,]3/2[E,B,E][E,B,E] | %17
[M:4/4] [F,B,D]2 [F,DF]2 [F,CE][F,CE][F,CE][F,CE] |[M:3/4] [B,,B,]6 |[M:1/4] [B,,B,]B,, | %20
[M:4/4] F,[F,A,]F,F, F,F,[F,A,E][F,A,E] | [B,,B,][B,,B,]B,,B,, B,,B,,[B,,B,][B,,B,] | %22
 [C,G,]2 [C,G,]2 [C,G,][C,G,][C,G,][C,B,] | [F,A,]2 F,F, F,E,[D,B,][C,A,C] | %24
 [B,,B,][B,,B,][B,,B,][B,,B,] [B,,B,][B,,B,][C,A,][D,B,] | %25
[M:17/16] [E,B,][E,B,][E,B,][E,B,][E,B,][E,B,]3/2[E,B,E][E,B,E] | %26
[M:4/4] [F,B,D]2 [F,DF]2 [F,CE][F,CE][F,CE][F,CE] |[M:3/4] [B,,B,]6 |] %28
V:3
 x8 | x8 | x8 | x8 |[M:3/4] x6 |[M:1/4] x2 |[M:4/4] x8 | x8 | x8 |[M:3/4] x6 |[M:1/4] x2 | %11
[M:4/4] .[CEA]2 A,A, A,A,cc | .[DB]2 B,B, B,B,[Fd][Fd] | x8 | z2[K:bass] A,A, A,CD[K:treble]E | %15
 x8 |[M:17/16] x17/2 |[M:4/4] x8 |[M:3/4] x6 |[M:1/4] x2 |[M:4/4] .[CEA]2 A,A, A,A,cc | %21
 .[DB]2 B,B, B,B,[Fd][Fd] | x8 | z2[K:bass] A,A, A,CD[K:treble]E | x8 |[M:17/16] x17/2 | %26
[M:4/4] x8 |[M:3/4] x6 |] %28

